X: 8
T: Aristocracy
T:Southern Aristocracy
T:Colored Aristocracy
R: Reel
O: 19th-Century American
M: 2/4
L: 1/16
Q:1/4=120
K: G
E2F2 \
|"G"G2>A2 GED2 | G6 A2 | "Em"B2>c2 BAG2 | E6 B2 \
| "C"cBcd e2dc | "G"BABc d2cB \
|1 "A"A2B2 "A7"A2G2 | "D7"A2D2 \
:|2 "A7"A2B2 "D7"dBA2 | "G"G4 ||
|:e2f2 |"G"g2>a2 ged2 | "Em"e6 e2 | \
 e2>f2 edB2 | B4 A2B2 | "C"cBcd e2dc \
| "G"BABc d2cB |1 "A"A2B2 "A7"c2^c2 | "D7"d2^d2 \
:|2 "A7"A2B2 "D7"dBA2 | "G"G4 |]

